X: 9226
T: Dan Collins' Father's
R: jig
M: 6/8
K: Dmajor
|:d2A BAB|def a3|aba f2e|dBB gfe|
d2A BAB|def a3|aba f2e|edc d2e:|
|:faa faa|fab afe|fab afd|e3 gfe|
d2A BAB|def a3|aba f2e|edc d3:|

